src/com/lilithsthrone/res/statusEffects/combatBonusRatMorph.svg

<?xml version="1.0" encoding="UTF-8" standalone="no"?>
<!-- Created with Inkscape (http://www.inkscape.org/) -->

<svg
   xmlns:dc="http://purl.org/dc/elements/1.1/"
   xmlns:cc="http://creativecommons.org/ns#"
   xmlns:rdf="http://www.w3.org/1999/02/22-rdf-syntax-ns#"
   xmlns:svg="http://www.w3.org/2000/svg"
   xmlns="http://www.w3.org/2000/svg"
   xmlns:sodipodi="http://sodipodi.sourceforge.net/DTD/sodipodi-0.dtd"
   xmlns:inkscape="http://www.inkscape.org/namespaces/inkscape"
   width="100%"
   height="100%"
   viewBox="0 0 64.000001 64.000001"
   id="svg4311"
   version="1.1"
   inkscape:version="0.91 r13725"
   sodipodi:docname="combatBonusRatMorph.svg">
  <defs
     id="defs4313">
    <inkscape:path-effect
       effect="powerstroke"
       id="path-effect4155"
       is_visible="true"
       offset_points="0.92799346,1.2886104"
       sort_points="true"
       interpolator_type="Linear"
       interpolator_beta="0.2"
       start_linecap_type="zerowidth"
       linejoin_type="round"
       miter_limit="4"
       end_linecap_type="zerowidth"
       cusp_linecap_type="round" />
    <inkscape:path-effect
       effect="powerstroke"
       id="path-effect4151"
       is_visible="true"
       offset_points="0,0.5"
       sort_points="true"
       interpolator_type="CubicBezierJohan"
       interpolator_beta="0.2"
       start_linecap_type="zerowidth"
       linejoin_type="round"
       miter_limit="4"
       end_linecap_type="zerowidth"
       cusp_linecap_type="round" />
    <inkscape:path-effect
       effect="powerstroke"
       id="path-effect4147"
       is_visible="true"
       offset_points="0,0.5"
       sort_points="true"
       interpolator_type="CubicBezierJohan"
       interpolator_beta="0.2"
       start_linecap_type="zerowidth"
       linejoin_type="round"
       miter_limit="4"
       end_linecap_type="zerowidth"
       cusp_linecap_type="round" />
    <inkscape:path-effect
       effect="powerstroke"
       id="path-effect4183"
       is_visible="true"
       offset_points="0.238227,0.51804536"
       sort_points="true"
       interpolator_type="Linear"
       interpolator_beta="0.2"
       start_linecap_type="zerowidth"
       linejoin_type="round"
       miter_limit="4"
       end_linecap_type="zerowidth"
       cusp_linecap_type="round" />
    <pattern
       y="0"
       x="0"
       height="6"
       width="6"
       patternUnits="userSpaceOnUse"
       id="EMFhbasepattern" />
  </defs>
  <sodipodi:namedview
     id="base"
     pagecolor="#ffffff"
     bordercolor="#666666"
     borderopacity="1.0"
     inkscape:pageopacity="0.0"
     inkscape:pageshadow="2"
     inkscape:zoom="7.9195959"
     inkscape:cx="23.448193"
     inkscape:cy="18.289223"
     inkscape:document-units="px"
     inkscape:current-layer="layer5"
     showgrid="false"
     units="px"
     inkscape:window-width="2560"
     inkscape:window-height="1388"
     inkscape:window-x="-8"
     inkscape:window-y="-8"
     inkscape:window-maximized="1"
     showguides="false" />
  <metadata
     id="metadata4316">
    <rdf:RDF>
      <cc:Work
         rdf:about="">
        <dc:format>image/svg+xml</dc:format>
        <dc:type
           rdf:resource="http://purl.org/dc/dcmitype/StillImage" />
        <dc:title></dc:title>
      </cc:Work>
    </rdf:RDF>
  </metadata>
  <g
     inkscape:groupmode="layer"
     id="layer5"
     inkscape:label="Stage5"
     style="display:inline;opacity:1">
    <path
       sodipodi:type="star"
       style="fill:#ff8080;fill-opacity:1;stroke:#000000;stroke-width:0.73031849;stroke-linecap:round;stroke-miterlimit:4;stroke-dasharray:none;stroke-dashoffset:0;stroke-opacity:1"
       id="path4168"
       sodipodi:sides="5"
       sodipodi:cx="1.4285713"
       sodipodi:cy="-9.5714273"
       sodipodi:r1="17.431536"
       sodipodi:r2="14.102408"
       sodipodi:arg1="0.90885469"
       sodipodi:arg2="1.5371732"
       inkscape:flatsided="true"
       inkscape:rounded="0"
       inkscape:randomized="0"
       d="M 12.142857,4.1785731 -8.3375598,4.867448 -15.321516,-14.397712 0.8425794,-26.993111 17.816495,-15.512335 Z"
       inkscape:transform-center-x="0.97927869"
       inkscape:transform-center-y="-3.2456342"
       transform="matrix(1.5645444,0.05692315,-0.03980006,1.6319874,29.685873,48.596329)" />
    <g
       id="g4182"
       transform="matrix(2.8531167,0,0,2.8531168,58.2975,-63.857813)">
      <path
         style="fill:none;stroke:#ff2a2a;stroke-width:0.14816557px;stroke-linecap:butt;stroke-linejoin:miter;stroke-miterlimit:4;stroke-dasharray:none;stroke-opacity:1"
         d="m -13.471088,34.825836 c -0.253991,-0.804333 -0.127,-1.735666 -3.005638,-2.286"
         id="path4156"
         inkscape:connector-curvature="0" />
      <path
         style="fill:none;stroke:#ff2a2a;stroke-width:0.14816557px;stroke-linecap:butt;stroke-linejoin:miter;stroke-miterlimit:4;stroke-dasharray:none;stroke-opacity:1"
         d="m -13.661588,34.402503 c 0.783167,-1.164167 0,-2.201333 -1.164149,-3.174986"
         id="path4158-4"
         inkscape:connector-curvature="0" />
      <path
         style="fill:none;stroke:#ff2a2a;stroke-width:0.14816557px;stroke-linecap:butt;stroke-linejoin:miter;stroke-miterlimit:4;stroke-dasharray:none;stroke-opacity:1"
         d="m -13.365254,34.952808 c 0.529166,-1.227638 -0.275167,-2.074305 -1.883814,-2.899805"
         id="path4160"
         inkscape:connector-curvature="0" />
      <path
         style="fill:#ff2a2a;fill-opacity:1;fill-rule:evenodd;stroke:#ff2a2a;stroke-width:0.27516463px;stroke-linecap:butt;stroke-linejoin:miter;stroke-miterlimit:4;stroke-dasharray:none;stroke-opacity:1"
         d="m -2.5491727,31.883678 c -0.232833,2.603492 -0.634971,5.270463 -5.8207764,6.032463 -0.4021667,-0.148166 -0.6985,-0.4445 -0.9736667,-0.867833 -2.3706382,-0.148167 -4.0216382,-0.8255 -4.3814632,-2.434138 -0.994828,-0.719667 -0.656164,-1.058334 0.275158,-1.248834 0.656167,-0.423333 1.058333,-0.994833 2.836305,-1.291166 0.7831669,-0.656156 1.7991669,-0.93132 3.0056669,-0.952486 -0.3175,-0.677328 -0.3386667,-1.926153 1.1006384,-1.799154 1.037167,0.105833 0.804333,1.375823 0.084667,1.968484 0.275166,0 0.550333,0.02117 0.889,0.169334 -0.169334,-1.037159 0.296333,-2.264817 2.180166,-2.137818 1.269972,0.08467 1.291139,1.502823 0.402139,2.518815 z"
         id="path4162"
         inkscape:connector-curvature="0" />
      <path
         style="fill:none;stroke:#ff2a2a;stroke-width:0.14816557px;stroke-linecap:butt;stroke-linejoin:miter;stroke-miterlimit:4;stroke-dasharray:none;stroke-opacity:1"
         d="m -13.238254,34.212003 c -0.0635,1.121805 0.1905,2.307138 -1.86265,3.598305"
         id="path4164"
         inkscape:connector-curvature="0" />
      <path
         style="fill:none;stroke:#ff2a2a;stroke-width:0.14816557px;stroke-linecap:butt;stroke-linejoin:miter;stroke-miterlimit:4;stroke-dasharray:none;stroke-opacity:1"
         d="m -12.687921,34.720003 c 0.677333,1.545138 0.127,2.942138 -0.6985,4.21211"
         id="path4166"
         inkscape:connector-curvature="0" />
      <path
         style="fill:none;stroke:#ff2a2a;stroke-width:0.14816557px;stroke-linecap:butt;stroke-linejoin:miter;stroke-miterlimit:4;stroke-dasharray:none;stroke-opacity:1"
         d="m -13.111254,33.873336 c 0.635,1.439305 0.232833,2.751639 -0.761992,4.254472"
         id="path4168-5"
         inkscape:connector-curvature="0" />
    </g>
    <path
       style="display:inline;opacity:1;fill:#f9f9f9;fill-opacity:1;fill-rule:evenodd;stroke:none;stroke-width:1px;stroke-linecap:butt;stroke-linejoin:miter;stroke-opacity:1"
       d="M 32.58813,6.8299461 C 43.141652,14.150158 45.68552,16.35403 56.6841,24.88989 47.793699,22.27626 34.541579,9.5048609 32.58813,6.8299461 Z"
       id="path4281-0"
       inkscape:connector-curvature="0"
       sodipodi:nodetypes="ccc" />
    <path
       style="display:inline;opacity:1;fill:#000000;fill-opacity:0.44859811;fill-rule:evenodd;stroke:none;stroke-width:1px;stroke-linecap:butt;stroke-linejoin:miter;stroke-opacity:1"
       d="M 48.528934,55.968492 C 36.350582,56.180178 24.675347,56.047986 16.557409,55.981412 13.168111,46.178694 9.9127758,35.093102 6.3878346,24.118699 11.878755,36.064798 12.7552,43.733966 21.138496,50.327266 c 6.025034,4.738571 15.106093,4.469879 27.390438,5.641226 z"
       id="path4283-0"
       inkscape:connector-curvature="0"
       sodipodi:nodetypes="cccsc" />
  </g>
</svg>

<svg xmlns="http://www.w3.org/2000/svg" viewBox="0 0 64 64">
    <path fill="#ff8080" stroke="#000" stroke-linecap="round" stroke-width=".73" d="M12.143 4.179l-20.48.688-6.985-19.265L.843-26.993l16.973 11.48z" transform="matrix(1.56454 .05692 -.0398 1.63199 29.686 48.596)"/>
    <g stroke="#ff2a2a">
        <path fill="none" stroke-width=".148" d="M-13.471 34.826c-.254-.804-.127-1.736-3.006-2.286M-13.662 34.403c.784-1.165 0-2.202-1.164-3.175M-13.365 34.953c.529-1.228-.275-2.074-1.884-2.9" transform="matrix(2.85312 0 0 2.85312 58.297 -63.858)"/>
        <path fill="#ff2a2a" fill-rule="evenodd" stroke-width=".275" d="M-2.55 31.884c-.232 2.603-.634 5.27-5.82 6.032-.402-.148-.698-.444-.974-.868-2.37-.148-4.021-.825-4.381-2.434-.995-.72-.656-1.058.275-1.249.656-.423 1.058-.994 2.836-1.29.784-.657 1.8-.932 3.006-.953-.317-.678-.339-1.926 1.1-1.8 1.038.106.805 1.376.085 1.969.276 0 .55.021.89.17-.17-1.038.296-2.265 2.18-2.138 1.27.084 1.29 1.502.402 2.518z" transform="matrix(2.85312 0 0 2.85312 58.297 -63.858)"/>
        <path fill="none" stroke-width=".148" d="M-13.238 34.212c-.064 1.122.19 2.307-1.863 3.598M-12.688 34.72c.677 1.545.127 2.942-.698 4.212M-13.111 33.873c.635 1.44.233 2.752-.762 4.255" transform="matrix(2.85312 0 0 2.85312 58.297 -63.858)"/>
    </g>
    <path fill="#f9f9f9" fill-rule="evenodd" d="M32.588 6.83c10.554 7.32 13.098 9.524 24.096 18.06-8.89-2.614-22.142-15.385-24.096-18.06z"/>
    <path fill-opacity=".449" fill-rule="evenodd" d="M48.529 55.968c-12.178.212-23.854.08-31.972.013-3.389-9.802-6.644-20.888-10.17-31.862 5.492 11.946 6.368 19.615 14.751 26.208 6.026 4.739 15.107 4.47 27.39 5.641z"/>
</svg>
